apps/symbolic/accessories-text-editor-symbolic.svg

<?xml version="1.0" encoding="UTF-8" standalone="no"?>
<svg
   xmlns:dc="http://purl.org/dc/elements/1.1/"
   xmlns:cc="http://creativecommons.org/ns#"
   xmlns:rdf="http://www.w3.org/1999/02/22-rdf-syntax-ns#"
   xmlns:svg="http://www.w3.org/2000/svg"
   xmlns="http://www.w3.org/2000/svg"
   xmlns:xlink="http://www.w3.org/1999/xlink"
   version="1.1"
   width="16"
   height="16"
   id="svg3020">
  <defs
     id="defs3022">
    <linearGradient
       gradientUnits="userSpaceOnUse"
       xlink:href="#linearGradient3600-3-0"
       id="linearGradient3737-0"
       y2="17.00102"
       x2="6"
       y1="4.0010209"
       x1="6" />
    <linearGradient
       gradientUnits="userSpaceOnUse"
       xlink:href="#linearGradient3104-8-1"
       id="linearGradient3735-8"
       y2="2.0010207"
       x2="2"
       y1="18.00102"
       x1="2" />
    <linearGradient
       id="linearGradient3104-8-1">
      <stop
         offset="0"
         style="stop-color:#969696;stop-opacity:1"
         id="stop3106-1-4" />
      <stop
         offset="1"
         style="stop-color:#bebebe;stop-opacity:1"
         id="stop3108-2-0" />
    </linearGradient>
    <linearGradient
       id="linearGradient3600-3-0">
      <stop
         offset="0"
         style="stop-color:#ffffff;stop-opacity:1"
         id="stop3602-9-5" />
      <stop
         offset="1"
         style="stop-color:#e6e6e6;stop-opacity:1"
         id="stop3604-4-9" />
    </linearGradient>
    <linearGradient
       gradientTransform="matrix(0.3763801,0.03615261,0.03669995,0.374874,-2.2182805,-1.1331002)"
       gradientUnits="userSpaceOnUse"
       xlink:href="#linearGradient3191-577-2"
       id="linearGradient3156-1"
       y2="41.391716"
       x2="9.5220556"
       y1="37.371799"
       x1="5.5178981" />
    <linearGradient
       gradientTransform="matrix(0.4040235,-0.4056919,0.6073752,0.602268,-17.636692,0.462492)"
       gradientUnits="userSpaceOnUse"
       xlink:href="#linearGradient3290-678-0"
       id="linearGradient3154-8"
       y2="26.02973"
       x2="9"
       y1="29.056757"
       x1="9" />
    <linearGradient
       gradientTransform="matrix(0.4040235,-0.4056919,0.6073752,0.6022679,-17.177369,-2.1969969e-4)"
       gradientUnits="userSpaceOnUse"
       xlink:href="#linearGradient3223-699-9"
       id="linearGradient3152-2"
       y2="30.000141"
       x2="30.037716"
       y1="24.989594"
       x1="30.037716" />
    <linearGradient
       gradientTransform="matrix(0.4040235,-0.4056919,0.6073752,0.6022679,-17.061661,-0.1164056)"
       gradientUnits="userSpaceOnUse"
       xlink:href="#linearGradient3240-907-4"
       id="linearGradient3150-6"
       y2="30.000141"
       x2="30.037716"
       y1="24.989594"
       x1="30.037716" />
    <linearGradient
       gradientTransform="matrix(0.4040235,-0.4056919,0.6073752,0.6022679,-17.581392,0.4054707)"
       gradientUnits="userSpaceOnUse"
       xlink:href="#linearGradient3223-768-9"
       id="linearGradient3148-6"
       y2="30.000141"
       x2="30.037716"
       y1="24.989594"
       x1="30.037716" />
    <linearGradient
       gradientTransform="matrix(0.4040235,-0.4056919,0.6073752,0.6022679,-17.465684,0.2892868)"
       gradientUnits="userSpaceOnUse"
       xlink:href="#linearGradient3240-686-8"
       id="linearGradient3146-7"
       y2="30.000141"
       x2="30.037716"
       y1="24.989594"
       x1="30.037716" />
    <linearGradient
       gradientTransform="matrix(0.4040235,-0.4056919,0.6073752,0.6022679,-17.983472,0.8092126)"
       gradientUnits="userSpaceOnUse"
       xlink:href="#linearGradient3223-789-4"
       id="linearGradient3144-0"
       y2="30.000141"
       x2="30.037716"
       y1="24.989594"
       x1="30.037716" />
    <linearGradient
       gradientTransform="matrix(0.4040235,-0.4056919,0.6073752,0.6022679,-17.867764,0.6930272)"
       gradientUnits="userSpaceOnUse"
       xlink:href="#linearGradient3240-279-2"
       id="linearGradient3142-9"
       y2="30.000141"
       x2="30.037716"
       y1="24.989594"
       x1="30.037716" />
    <linearGradient
       spreadMethod="pad"
       gradientTransform="matrix(0.415777,-0.4174938,0.518983,0.5146192,-15.747227,2.6503673)"
       gradientUnits="userSpaceOnUse"
       xlink:href="#linearGradient3155-40-3"
       id="linearGradient3140-9"
       y2="31.210939"
       x2="23.575972"
       y1="25.356892"
       x1="23.575972" />
    <linearGradient
       id="linearGradient3191-577-2">
      <stop
         offset="0"
         style="stop-color:#dbce48;stop-opacity:1"
         id="stop2613-6" />
      <stop
         offset="1"
         style="stop-color:#c5b625;stop-opacity:1"
         id="stop2615-7" />
    </linearGradient>
    <linearGradient
       id="linearGradient3290-678-0">
      <stop
         offset="0"
         style="stop-color:#ece5a5;stop-opacity:1"
         id="stop2607-7" />
      <stop
         offset="1"
         style="stop-color:#fcfbf2;stop-opacity:1"
         id="stop2609-6" />
    </linearGradient>
    <linearGradient
       id="linearGradient3223-699-9">
      <stop
         offset="0"
         style="stop-color:#b1b1b1;stop-opacity:1"
         id="stop2599-9" />
      <stop
         offset="0.5"
         style="stop-color:#ffffff;stop-opacity:1"
         id="stop2601-5" />
      <stop
         offset="1"
         style="stop-color:#8f8f8f;stop-opacity:1"
         id="stop2603-5" />
    </linearGradient>
    <linearGradient
       id="linearGradient3240-907-4">
      <stop
         offset="0"
         style="stop-color:#565656;stop-opacity:1"
         id="stop2591-5" />
      <stop
         offset="0.5"
         style="stop-color:#9a9a9a;stop-opacity:1"
         id="stop2593-9" />
      <stop
         offset="1"
         style="stop-color:#545454;stop-opacity:1"
         id="stop2595-0" />
    </linearGradient>
    <linearGradient
       id="linearGradient3223-768-9">
      <stop
         offset="0"
         style="stop-color:#b1b1b1;stop-opacity:1"
         id="stop2583-9" />
      <stop
         offset="0.5"
         style="stop-color:#ffffff;stop-opacity:1"
         id="stop2585-7" />
      <stop
         offset="1"
         style="stop-color:#8f8f8f;stop-opacity:1"
         id="stop2587-4" />
    </linearGradient>
    <linearGradient
       id="linearGradient3240-686-8">
      <stop
         offset="0"
         style="stop-color:#565656;stop-opacity:1"
         id="stop2575-7" />
      <stop
         offset="0.5"
         style="stop-color:#9a9a9a;stop-opacity:1"
         id="stop2577-8" />
      <stop
         offset="1"
         style="stop-color:#545454;stop-opacity:1"
         id="stop2579-9" />
    </linearGradient>
    <linearGradient
       id="linearGradient3223-789-4">
      <stop
         offset="0"
         style="stop-color:#b1b1b1;stop-opacity:1"
         id="stop2567-3" />
      <stop
         offset="0.5"
         style="stop-color:#ffffff;stop-opacity:1"
         id="stop2569-0" />
      <stop
         offset="1"
         style="stop-color:#8f8f8f;stop-opacity:1"
         id="stop2571-5" />
    </linearGradient>
    <linearGradient
       id="linearGradient3240-279-2">
      <stop
         offset="0"
         style="stop-color:#565656;stop-opacity:1"
         id="stop2559-3" />
      <stop
         offset="0.5"
         style="stop-color:#9a9a9a;stop-opacity:1"
         id="stop2561-8" />
      <stop
         offset="1"
         style="stop-color:#545454;stop-opacity:1"
         id="stop2563-7" />
    </linearGradient>
    <linearGradient
       id="linearGradient3155-40-3">
      <stop
         offset="0"
         style="stop-color:#181818;stop-opacity:1"
         id="stop2541-6" />
      <stop
         offset="0.13482948"
         style="stop-color:#dbdbdb;stop-opacity:1"
         id="stop2543-9" />
      <stop
         offset="0.20224422"
         style="stop-color:#a4a4a4;stop-opacity:1"
         id="stop2545-9" />
      <stop
         offset="0.26965895"
         style="stop-color:#ffffff;stop-opacity:1"
         id="stop2547-9" />
      <stop
         offset="0.44650277"
         style="stop-color:#8d8d8d;stop-opacity:1"
         id="stop2549-2" />
      <stop
         offset="0.57114136"
         style="stop-color:#959595;stop-opacity:1"
         id="stop2551-9" />
      <stop
         offset="0.72038066"
         style="stop-color:#cecece;stop-opacity:1"
         id="stop2553-1" />
      <stop
         offset="1"
         style="stop-color:#181818;stop-opacity:1"
         id="stop2555-6" />
    </linearGradient>
  </defs>
  <metadata
     id="metadata3025">
    <rdf:RDF>
      <cc:Work
         rdf:about="">
        <dc:format>image/svg+xml</dc:format>
        <dc:type
           rdf:resource="http://purl.org/dc/dcmitype/StillImage" />
        <dc:title />
      </cc:Work>
    </rdf:RDF>
  </metadata>
  <path
     style="color:#bebebe;fill:#bebebe;fill-opacity:1;fill-rule:nonzero;stroke:none;stroke-width:1;marker:none;visibility:visible;display:inline;overflow:visible;enable-background:accumulate"
     d="M 1.5,0 C 0.669,0 0,0.669 0,1.5 l 0,13 C 0,15.331 0.669,16 1.5,16 l 11,0 c 0.831,0 1.5,-0.669 1.5,-1.5 l 0,-7 -1,1 0,6 c 0,0.30217 -0.19783,0.5 -0.5,0.5 l -11,0 C 1.1978297,15 1,14.80217 1,14.5 L 1,1.5 C 1,1.1978297 1.1978297,1 1.5,1 l 11,0 C 12.80217,1 13,1.1978297 13,1.5 L 13.849074,0.88166192 C 13.617931,0.35968217 13.111435,0 12.5,0 z"
     id="rect3289" />
  <path
     d="M 6.1589087,9.7017742 4.9911823,13.010025 8.2951718,11.838037 14.169897,5.9633136 12.033633,3.8270503 z m 6.9428563,-6.9428558 2.136263,2.1362632 0.534065,-0.5340653 c 0.292002,-0.2920014 0.308692,-0.7594417 0.0167,-1.0514425 L 14.703965,2.2248524 c -0.292,-0.2920007 -0.77613,-0.2920007 -1.068131,0 z"
     id="rect2994"
     style="color:#bebebe;fill:#bebebe;fill-opacity:1;fill-rule:nonzero;stroke:none;stroke-width:1;marker:none;visibility:visible;display:inline;overflow:visible;enable-background:accumulate" />
</svg>

<svg xmlns="http://www.w3.org/2000/svg" viewBox="0 0 16 16"><path d="M1.5 0C.67 0 0 .67 0 1.5v13c0 .83.67 1.5 1.5 1.5h11c.83 0 1.5-.67 1.5-1.5v-7l-1 1v6c0 .302-.198.5-.5.5h-11c-.302 0-.5-.198-.5-.5v-13c0-.302.198-.5.5-.5h11c.302 0 .5.198.5.5l.85-.618A1.463 1.463 0 0 0 12.5 0z" color="#bebebe" fill="#bebebe" overflow="visible"/><path d="M6.16 9.702L4.99 13.01l3.305-1.172 5.875-5.875-2.136-2.136zM13.1 2.76l2.136 2.135.534-.534a.74.74 0 0 0 .017-1.05L14.7 2.228a.76.76 0 0 0-1.067 0z" color="#bebebe" fill="#bebebe" overflow="visible"/></svg>
